data/styles/clear/style-night/symbols/book-shop-m.svg

<svg height="24" viewBox="0 0 24 24" width="24"><g fill="none" fill-rule="evenodd"><circle cx="12" cy="12" fill="#fff" opacity=".4" r="12"/><circle cx="12" cy="12" fill="#4e3552" r="11"/><path d="m6 18h12v-.9627345h-12zm11.112-3.2992911-4.6504615 1.3738221v-8.66461033l4.6504615-1.37382211c.4901538-.14441017.888.16847853.888.7008707v6.73914144c0 .5314294-.3978462 1.0792253-.888 1.2245982zm-11.112-1.225561v-6.73914137c0-.53142944.39784615-.84528088.888-.70087071l4.6504615 1.37478485v8.66461033l-4.6504615-1.3738221c-.49015385-.1453729-.888-.6931688-.888-1.225561z" fill="#fff" opacity=".6"/></g></svg>

<svg width="24" height="24" viewBox="0 0 24 24">
  <g fill="none" fill-rule="evenodd">
    <circle cx="12" cy="12" r="12" fill="#FFF" opacity=".4"/>
    <circle cx="12" cy="12" r="11" fill="#4E3551"/>
    <path fill="#FFF" d="M6,18 L18,18 L18,17.0372655 L6,17.0372655 L6,18 L6,18 Z M17.112,14.7007089 L12.4615385,16.074531 L12.4615385,7.40992067 L17.112,6.03609856 C17.6021538,5.89168839 18,6.20457709 18,6.73696926 L18,13.4761107 C18,14.0075401 17.6021538,14.555336 17.112,14.7007089 L17.112,14.7007089 Z M6,13.4751479 L6,6.73600653 C6,6.20457709 6.39784615,5.89072565 6.888,6.03513582 L11.5384615,7.40992067 L11.5384615,16.074531 L6.888,14.7007089 C6.39784615,14.555336 6,14.0075401 6,13.4751479 L6,13.4751479 Z" opacity=".6"/>
  </g>
</svg>
